X: 209
T:Laudate pueri Dominum
N: Derived from Jos1711-Laudate_pueri_Dominum.krn
C: Josquin des Prez
%%abc-version 2.0
%%abcx-abcm2ps-target-version 5.9.1 (29 Sep 2008)
%%abc-creator hum2abc beta
%%abcx-conversion-date 2019/02/12 16:15:48
%%abc-edited-by Jesse Rodin
%%abc-edited-by Joel Chapman 2012/1/9
%%abcx-initial-encoding-date 2012/01/09/
%%humdrum-veritas 2508106334
%%humdrum-veritas-data 1158056729
%%linebreak <none>
%%barnumbers 0
L: 1/4
M: 2/1
Q: 1/2=120
%%staves [1 2 3 4]
V: 1 clef=treble
V: 2 clef=treble-8
V: 3 clef=treble-8
V: 4 clef=bass
K: F
[V:1] F8 | 
[V:2] z4F4- | 
[V:3] z8 | 
[V:4] z8 | 
[V:1] A4c4- | 
[V:2] F4A4 | 
[V:3] F8 | 
[V:4] z4F,4- | 
[V:1] c4c2c2- | 
[V:2] c4c3d | 
[V:3] A4c4- | 
[V:4] F,4A,4 | 
[V:1] c2BAG3F | 
[V:2] e2f3e/d/e2 | 
[V:3] c4z4 | 
[V:4] C8 | 
[V:1] A4z2A2- | 
[V:2] f4z2f2- | 
[V:3] c8 | 
[V:4] F,8 | 
[V:1] A2A2A4 | 
[V:2] f2f4f2 | 
[V:3] c4c4 | 
[V:4] F,4F,4 | 
[V:1] B6A2 | 
[V:2] g6f2 | 
[V:3] d6c2 | 
[V:4] B,6F,2 | 
[V:1] A4z2A2- | 
[V:2] f4z2f2- | 
[V:3] c8 | 
[V:4] F,8 | 
[V:1] A2A4A2 | 
[V:2] f2f4f2 | 
[V:3] c4c2c2 | 
[V:4] F,4F,2F,2 | 
[V:1] B4B4 | 
[V:2] f4g4 | 
[V:3] d4B4 | 
[V:4] B,4G,4 | 
[V:1] A6F2 | 
[V:2] e6d2 | 
[V:3] c6A2 | 
[V:4] A,6D,2 | 
[V:1] !fermata!F8 | 
[V:2] !fermata!d8 | 
[V:3] !fermata!A8 | 
[V:4] !fermata!D,8 | 
[V:1] B4A4 | 
[V:2] f4f4 | 
[V:3] d4c4 | 
[V:4] B,,4F,4 | 
[V:1] G4A2A2 | 
[V:2] e4f2f2 | 
[V:3] B4c2c2 | 
[V:4] G,4F,2F,2 | 
[V:1] A2B4A2 | 
[V:2] f2g4f2 | 
[V:3] c2d4c2 | 
[V:4] F,2B,4F,2 | 
[V:1] G4G4- | 
[V:2] d4e4- | 
[V:3] B4c4- | 
[V:4] G,4C,4- | 
[V:1] G4z4 | 
[V:2] e4z4 | 
[V:3] c4c4 | 
[V:4] C,4F,4 | 
[V:1] A4A2A2 | 
[V:2] f4f2f2 | 
[V:3] c2c2c2c2 | 
[V:4] F,2F,2F,2F,2 | 
[V:1] A2A2BAGF | 
[V:2] f2f2f4 | 
[V:3] c4d4 | 
[V:4] F,E,D,C,B,,4 | 
[V:1] A2G3FF2 | 
[V:2] e4d4 | 
[V:3] c3BAGAB | 
[V:4] C,4D,2B,,2 | 
[V:1] E2F4E2 | 
[V:2] c2B2c3B | 
[V:3] G2F2G4 | 
[V:4] C,2D,2C,4 | 
[V:1] F4z4 | 
[V:2] AGF4f2- | 
[V:3] F8 | 
[V:4] z2C2A,2F,2 | 
[V:1] B4A2F2 | 
[V:2] f2e2f2f2 | 
[V:3] z8 | 
[V:4] G,4F,4 | 
[V:1] GFEDC2F2- | 
[V:2] d2B2c4 | 
[V:3] B4A2F2 | 
[V:4] z8 | 
[V:1] F2E2F4 | 
[V:2] B4z4 | 
[V:3] G4F4 | 
[V:4] z8 | 
[V:1] z2A2G2A2 | 
[V:2] z2f2e2f2 | 
[V:3] z2c2c2c2 | 
[V:4] z2F,2C,2F,2 | 
[V:1] B8 | 
[V:2] g8 | 
[V:3] _e8 | 
[V:4] _E,8 | 
[V:1] A8- | 
[V:2] f8 | 
[V:3] c8 | 
[V:4] F,8 | 
[V:1] A8 | 
[V:2] z8 | 
[V:3] f4f2f2 | 
[V:4] D4D2D2 | 
[V:1] z8 | 
[V:2] z8 | 
[V:3] e2a2g2f2- | 
[V:4] C4B,2A,2 | 
[V:1] z4f4 | 
[V:2] z4a4 | 
[V:3] f2e2f4- | 
[V:4] G,2G,2F,4- | 
[V:1] f2f2e2d2- | 
[V:2] a2a2g4 | 
[V:3] f4z4 | 
[V:4] F,4z4 | 
[V:1] dcc4BA | 
[V:2] f2e2f4 | 
[V:3] z4d4 | 
[V:4] z8 | 
[V:1] B3cA2G2- | 
[V:2] f4e4 | 
[V:3] d2d2c4 | 
[V:4] z8 | 
[V:1] GFF4ED | 
[V:2] z8 | 
[V:3] B2A2G4 | 
[V:4] z8 | 
[V:1] E3FD2C2 | 
[V:2] z4f4 | 
[V:3] G4F4 | 
[V:4] z4A,4 | 
[V:1] C4z4 | 
[V:2] f2f2e2d2- | 
[V:3] F4B4 | 
[V:4] A,2A,2G,4 | 
[V:1] z2G4F2 | 
[V:2] d2c2c2B2 | 
[V:3] A2G2A2F2 | 
[V:4] F,2E,2D,2D,2 | 
[V:1] F2E2F4- | 
[V:2] c4z2c2 | 
[V:3] G2G2F4- | 
[V:4] C,4z4 | 
[V:1] F8- | 
[V:2] c2c2A4 | 
[V:3] F4z4 | 
[V:4] z2F,2F,2F,2 | 
[V:1] F4z2c2 | 
[V:2] B4c4 | 
[V:3] z8 | 
[V:4] D,4E,4 | 
[V:1] c2c2A4 | 
[V:2] c4z4 | 
[V:3] z2f2f2f2 | 
[V:4] F,4F,4 | 
[V:1] B4c4 | 
[V:2] z4c3c | 
[V:3] d4e4 | 
[V:4] z8 | 
[V:1] c4z4 | 
[V:2] c2c2d4 | 
[V:3] f4f4 | 
[V:4] F,3F,F,2F,2 | 
[V:1] z4c3c | 
[V:2] e4c3c | 
[V:3] z8 | 
[V:4] G,4A,4 | 
[V:1] c2c2d4 | 
[V:2] A8 | 
[V:3] f3ff2f2 | 
[V:4] F,3F,D,4 | 
[V:1] e4c3c | 
[V:2] z8 | 
[V:3] g4a4 | 
[V:4] z8 | 
[V:1] A4z4 | 
[V:2] z8 | 
[V:3] f3fd4- | 
[V:4] z4B,4 | 
[V:1] z8 | 
[V:2] f4f2f2 | 
[V:3] d4z4 | 
[V:4] B,2B,2A,4 | 
[V:1] B4B2B2 | 
[V:2] e4d4 | 
[V:3] z4f4 | 
[V:4] G,4B,3B, | 
[V:1] A4G4 | 
[V:2] f3fc4 | 
[V:3] f2f2e4 | 
[V:4] F,4z4 | 
[V:1] B3BF2A2- | 
[V:2] z4z2c2- | 
[V:3] d4f3f | 
[V:4] z4F,4 | 
[V:1] A2A2G3F | 
[V:2] c2c2c2B2- | 
[V:3] c4z4 | 
[V:4] F,2F,2E,4 | 
[V:1] F2A4G2- | 
[V:2] B2A4c2- | 
[V:3] z2f4f2 | 
[V:4] D,4F,3F, | 
[V:1] G2B4B2 | 
[V:2] ccG2d4 | 
[V:3] e2d2g2g2 | 
[V:4] C,2G,4G,2 | 
[V:1] A3Bcded/e/ | 
[V:2] d2A3Bc2- | 
[V:3] f4F2G2 | 
[V:4] D,2F,3F,C,2 | 
[V:1] f3e/d/c2B2- | 
[V:2] cde2f2g2- | 
[V:3] A2B2c2d2- | 
[V:4] F,2G,2A,2B,2- | 
[V:1] Bcd4cB | 
[V:2] gff4e2 | 
[V:3] dcc4B2 | 
[V:4] B,A,G,F,G,4 | 
[V:1] A2G2F2f2- | 
[V:2] f2e2f4 | 
[V:3] c4z2c2- | 
[V:4] F,2C,2F,3G, | 
[V:1] f2e4d2- | 
[V:2] c3defg2- | 
[V:3] cdefg4 | 
[V:4] A,B,C4G,2 | 
[V:1] d2c4=B2 | 
[V:2] g2f2g2G2- | 
[V:3] c4d4 | 
[V:4] A,4G,4 | 
[V:1] c6BA | 
[V:2] G2A2G4 | 
[V:3] c8 | 
[V:4] C,2F,4E,2 | 
[V:1] A4z4 | 
[V:2] z4d4 | 
[V:3] c4B3A/G/ | 
[V:4] F,4B,,4 | 
[V:1] A4c4 | 
[V:2] f6f2 | 
[V:3] F8- | 
[V:4] z8 | 
[V:1] c2c2c2d2 | 
[V:2] f4f4 | 
[V:3] F8 | 
[V:4] z8 | 
[V:1] c2d4cB | 
[V:2] f4g4 | 
[V:3] z8 | 
[V:4] z8 | 
[V:1] AGB3AA2- | 
[V:2] fed3cBA | 
[V:3] z8 | 
[V:4] z8 | 
[V:1] A2G2A4- | 
[V:2] B4A4- | 
[V:3] d4f4- | 
[V:4] z4D,4 | 
[V:1] A4z4 | 
[V:2] A4z4 | 
[V:3] f2f2f4 | 
[V:4] F,3G,A,F,B,2 | 
[V:1] z8 | 
[V:2] z8 | 
[V:3] f4f4 | 
[V:4] A,2B,3CD2 | 
[V:1] z8 | 
[V:2] z8 | 
[V:3] g4f2e2- | 
[V:4] G,2B,2A,2G,2- | 
[V:1] z8 | 
[V:2] z8 | 
[V:3] edd4^c2 | 
[V:4] G,F,E,D,E,4 | 
[V:1] z8 | 
[V:2] z8 | 
[V:3] d8 | 
[V:4] D,8 | 
[V:1] z4c4- | 
[V:2] z4f4 | 
[V:3] z4A4 | 
[V:4] z4F,4 | 
[V:1] c2c2d4 | 
[V:2] f4d3c | 
[V:3] A4A4 | 
[V:4] F,4F,4 | 
[V:1] e4f4 | 
[V:2] c6BA | 
[V:3] G4A4 | 
[V:4] E,4D,4 | 
[V:1] f4e2c2- | 
[V:2] B4c3d | 
[V:3] F4G4 | 
[V:4] D,4C,4- | 
[V:1] c2BABAGF | 
[V:2] e2c4BA | 
[V:3] c4z4 | 
[V:4] C,8- | 
[V:1] E3DF4 | 
[V:2] G4F4 | 
[V:3] c2c2A2A2 | 
[V:4] C,4C2C2 | 
[V:1] c2c2A2A2 | 
[V:2] z4c2c2 | 
[V:3] F8 | 
[V:4] A,2A,2F,4 | 
[V:1] F3GABc2- | 
[V:2] A2A2F4- | 
[V:3] c4c4 | 
[V:4] F,6E,2 | 
[V:1] c2B2c2c2 | 
[V:2] F4G2G2 | 
[V:3] d2d2e3d | 
[V:4] D,4C,4- | 
[V:1] c4z2c2 | 
[V:2] G2A4GF | 
[V:3] e2f4ed | 
[V:4] C,4C,4- | 
[V:1] c8 | 
[V:2] G4A3B | 
[V:3] e4c4 | 
[V:4] C,4F,4 | 
[V:1] A4z2d2- | 
[V:2] c2d3cBA | 
[V:3] f2f4ed | 
[V:4] F,4G,2G,2 | 
[V:1] dcB4AG | 
[V:2] B2B2c4- | 
[V:3] e4f4 | 
[V:4] G,4F,4- | 
[V:1] A6GF | 
[V:2] c2A2A4- | 
[V:3] f6ed | 
[V:4] F,8- | 
[V:1] F8 | 
[V:2] A4z2c2- | 
[V:3] c4z2F2 | 
[V:4] F,4z4 | 
[V:1] z8 | 
[V:2] c2d4e2- | 
[V:3] A4B4 | 
[V:4] F,4G,4 | 
[V:1] z8 | 
[V:2] e2e2f2e2 | 
[V:3] c4c4 | 
[V:4] A,4A,4 | 
[V:1] z4F4 | 
[V:2] f2g3ef2- | 
[V:3] c2d3cc2- | 
[V:4] A,2B,2F,2A,2 | 
[V:1] G4A4 | 
[V:2] f2e2f4 | 
[V:3] c2B2c2F2- | 
[V:4] G,4F,4- | 
[V:1] A3GA2B2- | 
[V:2] c3de2f2- | 
[V:3] FGABc2d2- | 
[V:4] F,4z4 | 
[V:1] BAA4G2 | 
[V:2] fec2d2e2 | 
[V:3] dcA2B2c2 | 
[V:4] z8 | 
[V:1] A2A4B2 | 
[V:2] c2f4f2 | 
[V:3] F2d4d2 | 
[V:4] z8 | 
[V:1] A2G2A2A2- | 
[V:2] e2d2e2f2- | 
[V:3] c2B2A2c2- | 
[V:4] z4z2F,2- | 
[V:1] AFB3AGF | 
[V:2] f2f3ed2 | 
[V:3] cAd3cBA | 
[V:4] F,2B,,4B,,2 | 
[V:1] E2F4E2 | 
[V:2] c2B2c4 | 
[V:3] G2F2G4 | 
[V:4] C,2D,2C,4 | 
[V:1] F2A4B2 | 
[V:2] c2f4f2 | 
[V:3] F2c4d2 | 
[V:4] z2F,4B,,2 | 
[V:1] A2G2A2A2- | 
[V:2] f2e2f2f2- | 
[V:3] c2B2A3B | 
[V:4] F,2G,2D,2F,2- | 
[V:1] AFB3AGF | 
[V:2] f2f3ed2 | 
[V:3] c2d3cBA | 
[V:4] F,2B,,4B,,2 | 
[V:1] E2F4E2 | 
[V:2] c2B2c4 | 
[V:3] G2F2G2G2 | 
[V:4] C,2D,2C,4 | 
[V:1] F8 ||  
[V:2] c8 ||  
[V:3] F8 ||  
[V:4] F,8 ||  
[V:1]  [K:F] [M:2/1]z8 | 
[V:2]  [K:F] [M:2/1]z4c4 | 
[V:3]  [K:F] [M:2/1]c4f4- | 
[V:4]  [K:F] [M:2/1]F,8- | 
[V:1] z4F4- | 
[V:2] f6e2 | 
[V:3] f2e2d2c2 | 
[V:4] F,8 | 
[V:1] F8 | 
[V:2] d6c2 | 
[V:3] B3cdef2- | 
[V:4] B,6A,2 | 
[V:1] B6A2 | 
[V:2] B4c2F2 | 
[V:3] feed/e/f2d2- | 
[V:4] G,4F,4 | 
[V:1] G4F2F2 | 
[V:2] B3cdef2- | 
[V:3] dcc3BBA | 
[V:4] E,4D,4 | 
[V:1] G4G4 | 
[V:2] f2ede4 | 
[V:3] c3B/A/G4 | 
[V:4] C,4C,4 | 
[V:1] A8- | 
[V:2] f8 | 
[V:3] F8 | 
[V:4] F,4z2A,2- | 
[V:1] A8 | 
[V:2] z2e4e2 | 
[V:3] z2c4c2 | 
[V:4] A,2A,2A,2A,2 | 
[V:1] z8 | 
[V:2] e2e2d2d2 | 
[V:3] B8 | 
[V:4] G,2G,2G,2G,2 | 
[V:1] z4z2A2- | 
[V:2] d2d2f4 | 
[V:3] G4F4 | 
[V:4] B,4A,4- | 
[V:1] A2A4A2- | 
[V:2] e4z2e2- | 
[V:3] z2c2c2c2 | 
[V:4] A,8 | 
[V:1] A2A2G2G2 | 
[V:2] e2e2e2e2 | 
[V:3] c2c2B2B2 | 
[V:4] z4z2G,2- | 
[V:1] G2G2B4 | 
[V:2] d2d2d2d2 | 
[V:3] B6d2- | 
[V:4] G,2G,2G,2G,2 | 
[V:1] A8 | 
[V:2] f4e2cd | 
[V:3] d2c4BA | 
[V:4] F,2F,2A,2A,2 | 
[V:1] z8 | 
[V:2] efg4f2 | 
[V:3] B3cd_ed2- | 
[V:4] G,8- | 
[V:1] z2B2-BAGF | 
[V:2] e2dcd4 | 
[V:3] dcc4B2 | 
[V:4] G,8 | 
[V:1] E3FGAG2- | 
[V:2] c8- | 
[V:3] cGc4B2 | 
[V:4] C,8- | 
[V:1] GFF4E2 | 
[V:2] c8 | 
[V:3] A2GFG4 | 
[V:4] C,8 | 
[V:1] F4z4 | 
[V:2] c4z2g2- | 
[V:3] F4z4 | 
[V:4] z4C4 | 
[V:1] z8 | 
[V:2] g2f2e2g2- | 
[V:3] z8 | 
[V:4] B,2A,2C4 | 
[V:1] z8 | 
[V:2] g2d2f2f2 | 
[V:3] z8 | 
[V:4] G,2B,4A,2 | 
[V:1] z8 | 
[V:2] e2d2c2B2 | 
[V:3] z8 | 
[V:4] G,2F,2E,2D,2 | 
[V:1] c4A2G2 | 
[V:2] c8- | 
[V:3] z4c4 | 
[V:4] C,8- | 
[V:1] c4G3F | 
[V:2] c8 | 
[V:3] A2G2c4 | 
[V:4] C,8 | 
[V:1] ED/C/c4B2 | 
[V:2] c8- | 
[V:3] G2e4d2 | 
[V:4] C,8- | 
[V:1] A2G2F2E2 | 
[V:2] c8 | 
[V:3] c2B2A2G2 | 
[V:4] C,8 | 
[V:1] F4F4 | 
[V:2] A2F3GAB | 
[V:3] F4F4 | 
[V:4] F,3G,A,B,C2 | 
[V:1] z8 | 
[V:2] c2d2e2d2 | 
[V:3] z8 | 
[V:4] F,4G,4- | 
[V:1] z8 | 
[V:2] edededcB | 
[V:3] z8 | 
[V:4] G,8 | 
[V:1] z4c2d2- | 
[V:2] A2D2G2F2- | 
[V:3] z8 | 
[V:4] F,4E,2D,2- | 
[V:1] d2e2f4 | 
[V:2] FEDCD4 | 
[V:3] z4d4 | 
[V:4] D,C,C4=B,2 | 
[V:1] e3d/c/e2d2- | 
[V:2] C4z4 | 
[V:3] g4g4 | 
[V:4] C4z4 | 
[V:1] dcc4=B2 | 
[V:2] z2c2f4 | 
[V:3] f2e2d4 | 
[V:4] z8 | 
[V:1] c4z4 | 
[V:2] e6dc | 
[V:3] c8 | 
[V:4] z2C4B,A, | 
[V:1] z8 | 
[V:2] d2e2f2c2- | 
[V:3] z8 | 
[V:4] B,2C2F,3G, | 
[V:1] z8 | 
[V:2] cdefgab2- | 
[V:3] z8 | 
[V:4] A,B,C3A,D2- | 
[V:1] z8 | 
[V:2] b2a4g2 | 
[V:3] z8 | 
[V:4] DCA,3B,C2 | 
[V:1] z8 | 
[V:2] agfedcBA | 
[V:3] z8 | 
[V:4] F,4G,3F, | 
[V:1] z4z2A2 | 
[V:2] GFc2BAGF | 
[V:3] z8 | 
[V:4] E,D,C,2D,C,F,2- | 
[V:1] B4A3G/F/ | 
[V:2] G4F4 | 
[V:3] G4c4 | 
[V:4] F,2E,2F,4 | 
[V:1] A2G3FF2- | 
[V:2] z8 | 
[V:3] c4B2A2 | 
[V:4] z8 | 
[V:1] F2E2F2z2 | 
[V:2] z2c4f2- | 
[V:3] G4F4 | 
[V:4] C,4F,3E, | 
[V:1] F2B3AG2 | 
[V:2] fed2g3f | 
[V:3] B3AG2c2- | 
[V:4] D,2G,3F,E,D, | 
[V:1] c3BAGF2 | 
[V:2] edc2f3e | 
[V:3] cBAGF2B2- | 
[V:4] C,2F,3E,D,2 | 
[V:1] G2G3FED | 
[V:2] dcBAG2c2- | 
[V:3] BAG2c3B | 
[V:4] G,3F,E,D,C,2 | 
[V:1] C2F4E2 | 
[V:2] c2B2c3B | 
[V:3] AGF2G4 | 
[V:4] F,2D,2C,4 | 
[V:1] F4z2A2 | 
[V:2] AGF2z2f2 | 
[V:3] F3GABc2 | 
[V:4] C3B,A,G,F,2 | 
[V:1] G2A2z2A2 | 
[V:2] e2f2z2f2 | 
[V:3] B2c2z2c2 | 
[V:4] G,2F,2z2F,2 | 
[V:1] G2A2FGAF | 
[V:2] e2f2z2f2 | 
[V:3] B2c2ABcA | 
[V:4] G,2F,2z2F,2 | 
[V:1] B2A4AG/A/ | 
[V:2] f2f4f2 | 
[V:3] d2c4cB/c/ | 
[V:4] B,,2F,6 | 
[V:1] B2A4AG/A/ | 
[V:2] f2f6 | 
[V:3] d2c4cB/c/ | 
[V:4] B,,2F,6 | 
[V:1] B2A2G2B2 | 
[V:2] f2f2e2f2 | 
[V:3] d2c4d2 | 
[V:4] B,,2F,2C,2B,,2 | 
[V:1] A2G3FF2 | 
[V:2] e4d4 | 
[V:3] c4A2B2 | 
[V:4] C,4D,2B,,2 | 
[V:1] E2F4E2 | 
[V:2] c2B2c4 | 
[V:3] G2F2G3A | 
[V:4] C,2D,2C,4 | 
[V:1] D3EFGA2- | 
[V:2] F2f4f2- | 
[V:3] Bcd3cc2- | 
[V:4] B,,3C,D,E,F,2- | 
[V:1] A2GFEDG2- | 
[V:2] f4g2_e2- | 
[V:3] c2BAc2B2- | 
[V:4] F,E,D,2C,2_E,2- | 
[V:1] GFF4E2 | 
[V:2] e2dcc4 | 
[V:3] BAGFG4 | 
[V:4] E,2F,2C,4 | 
[V:1] F4z4 | 
[V:2] A4z2c2- | 
[V:3] z2F4G2 | 
[V:4] F,4z4 | 
[V:1] z4z2C2 | 
[V:2] c2d2e2f2 | 
[V:3] A4B2c2 | 
[V:4] F,4G,2A,2 | 
[V:1] D2E2F2G2 | 
[V:2] g2a4e2- | 
[V:3] z8 | 
[V:4] B,2C2D2C2- | 
[V:1] z8 | 
[V:2] efgef2e2 | 
[V:3] z8 | 
[V:4] C2B,A,D2C2 | 
[V:1] z4F2G2 | 
[V:2] f2d2c2z2 | 
[V:3] F2G2A2B2 | 
[V:4] C2B,2C2z2 | 
[V:1] A2B2c2d2- | 
[V:2] z8 | 
[V:3] c2d2e2f2- | 
[V:4] z8 | 
[V:1] dcc4=B2 | 
[V:2] f4f2f2 | 
[V:3] fedcd4 | 
[V:4] z8 | 
[V:1] c8- | 
[V:2] g4e4 | 
[V:3] c4c4 | 
[V:4] z8 | 
[V:1] c4z4 | 
[V:2] f8 | 
[V:3] c2c2d4 | 
[V:4] F,4F,2F,2 | 
[V:1] z8 | 
[V:2] d4z4 | 
[V:3] B4c4 | 
[V:4] G,4E,4 | 
[V:1] c4c2c2 | 
[V:2] z2f2f4 | 
[V:3] A2c2c2c2 | 
[V:4] F,8 | 
[V:1] d3cBAc2- | 
[V:2] a3gfeg2- | 
[V:3] f3edce2- | 
[V:4] D,4z4 | 
[V:1] cBAGA2B2- | 
[V:2] gfede2f2- | 
[V:3] edcBc2d2- | 
[V:4] z8 | 
[V:1] BAA4G2 | 
[V:2] fee4d2 | 
[V:3] dcBAB4 | 
[V:4] z8 | 
[V:1] A2zAA2A2 | 
[V:2] e2f2f2f2 | 
[V:3] A2c2c2c2 | 
[V:4] z2A,2A,2A,2 | 
[V:1] B3AGFA2- | 
[V:2] g3fedf2- | 
[V:3] d3cBAc2- | 
[V:4] G,6F,2- | 
[V:1] AGFEF2zc | 
[V:2] fedcd2c2- | 
[V:3] cBAGA2F2- | 
[V:4] F,4D,2A,2- | 
[V:1] c2c2d4 | 
[V:2] c2f3edc | 
[V:3] FEFGA2B2- | 
[V:4] A,G,F,E,D,C,B,,2- | 
[V:1] B4c4 | 
[V:2] def3e/d/e2 | 
[V:3] BAF2G4 | 
[V:4] B,,C,D,2C,4 | 
[V:1] A8 | 
[V:2] f4z4 | 
[V:3] F8- | 
[V:4] F,8- | 
[V:1] F4A4 | 
[V:2] c4f4 | 
[V:3] F8 | 
[V:4] F,8 | 
[V:1] G3ABcd2- | 
[V:2] e3fgef2- | 
[V:3] z8 | 
[V:4] z8 | 
[V:1] dcc4=B2 | 
[V:2] fec2d4 | 
[V:3] z8 | 
[V:4] z8 | 
[V:1] c4z4 | 
[V:2] c8 | 
[V:3] z4z2f2- | 
[V:4] z4F,4 | 
[V:1] z2c2B3A/G/ | 
[V:2] z8 | 
[V:3] f2e3dd2- | 
[V:4] A,4G,3A, | 
[V:1] F2G4F2 | 
[V:2] z2g2e2c2 | 
[V:3] d2G2A4 | 
[V:4] B,CD3CC2- | 
[V:1] G6B2- | 
[V:2] d4c2g2- | 
[V:3] G4c2d2- | 
[V:4] C2B,2C2B,2- | 
[V:1] B2A4G2 | 
[V:2] gff4e2 | 
[V:3] dcc4B2 | 
[V:4] B,A,F,2G,4 | 
[V:1] A2z2A2A2 | 
[V:2] f2z2f2f2 | 
[V:3] c2z2c2c2 | 
[V:4] F,2z2F,2F,2 | 
[V:1] A2A2A2A2 | 
[V:2] f2f2f2f2 | 
[V:3] c2c2c2c2 | 
[V:4] F,2F,2F,2F,2 | 
[V:1] A2A2B4 | 
[V:2] f2f2g4 | 
[V:3] c2c2d4 | 
[V:4] F,2F,2B,4 | 
[V:1] A4z2A2- | 
[V:2] f4z2f2- | 
[V:3] c8 | 
[V:4] F,8 | 
[V:1] A2A2A2A2 | 
[V:2] f2f2f2f2 | 
[V:3] z2c4c2 | 
[V:4] z2F,4F,2 | 
[V:1] A4A4 | 
[V:2] f4f4 | 
[V:3] c2c2c2c2- | 
[V:4] F,2F,2F,2F,2- | 
[V:1] A4B4 | 
[V:2] f4f4 | 
[V:3] c2c2d4 | 
[V:4] F,2F,2B,4 | 
[V:1] B4A4- | 
[V:2] g4e4- | 
[V:3] B4c4- | 
[V:4] G,4A,4- | 
[V:1] A2F2!fermata!F4 | 
[V:2] e2d2!fermata!d4 | 
[V:3] c2A2!fermata!A4 | 
[V:4] A,2D,2!fermata!D,4 | 
[V:1] c4c2c2 | 
[V:2] a4a4 | 
[V:3] f4f4 | 
[V:4] F,4F,4 | 
[V:1] d4c2c2 | 
[V:2] b2b2a4 | 
[V:3] f2f2f4 | 
[V:4] B,,4F,4 | 
[V:1] B4B4 | 
[V:2] g4g2g2 | 
[V:3] d8 | 
[V:4] G,8 | 
[V:1] A8- | 
[V:2] f8- | 
[V:3] d4d4 | 
[V:4] D,3C,D,2E,2 | 
[V:1] A8 |]  
[V:2] f8 |]  
[V:3] c8 |]  
[V:4] F,8 |]  



